X: 42577
T: When Them Taters All Are Dug
R: polka
M: 2/4
K: Cdorian
DF|B4/ A/G/F|D FG2|F3/2 G/ F/E/D|
C4|BB A/G/F|Bde2|d3/2e/ d/c/B|
c2de|f2 f2|e2dc|B2 A/G/F|
e2dc|BB A/G/F/E/|DFEC|D/C/ B,CA,|B,2DF|
BB DE/F/|GG C D/E/|D/C/ B,CA,|B,3F|
BB/B/ AF|DD EE|DD ED|C3 F|
BB AF|Bd e2|d3/2 e/ d/c/B|c2de|ff fB|
e3/2 e/ dc|BB A/G/ F|e2 fe|dB A> F|
DD EE|DB, C/B,/ A,|B,4||

